!!!OTL: Der alte Drudelsack (197c), S. 430
!!!id: T0378
**kern
*clefG2
*k[]
*G:
{8d
=1
8g
8g
8g
8a
=2
4b
8b}
=3
{8b
=4
8a
8g
8a
8b
=5
4g}
8r
=6
{8b
=7
8b
8a
8b
8cc
=8
4dd
8dd}
=9
{8dd
=10
8cc
8ee
8dd
8cc
=11
4b}
8r
==
*-
!!!minrhy: 8
!!!meters: 2/4 ]  ZZ[4
!!!cut: Der alte Drudelsack (197c), S. 430
!!!reg: Luxemburg
!!!trd: Singendes Volk, Esch-Alzette, 1937 posth.
!!!rhy1: X  XXXX  X_X
!!!rhy2: X  XXXX  X_0
!!!key: T0378  08  G 2/4 ]  ZZ[4
!!!mod: SECHSTONSKALA DUR ?]  AMBITUS[9
!!!kad: 3153
!!!akz: 13_21_35_43_
!!!fot: 'a__b__as'c__
!!!for: 'a__a__a__a__
!!!fok: '/__Sd_/__\__
!! PHRAS[AUFTAKTIG]
!!!fkt: Hochzeits-, Ehestandslied
!!!bem: Junglinster, fff Bertrang, um 1890
!! THILL; Mathias
!! PR[33] 2K[4] 2G[7] 3K[0] 3G[11] 4A[4] 4Ü[0] 5A[2] 6K[0] 6G[0]
!! 7K[0] 7G[0] 8A[0] MEHR[0] SI[27] ABS[55] SR[11] SP[16]
!! ST[16] 2k[0] 2g[29] 3k[7] 3g[0] 4d[0] 4ü[0] 5d[4] 6k[0] 6g[0]
!! 7k[0] 7g[0] 8d[0] mehr[0] si[40] dm[-13] sr[29] sp[11]
!! 1F[93] 2F[7] 3F[0] 4F[0] LF[0] 2P[0] 3P[0] 4P[0] TRI[0] DF[2] AB[60]
!! TF[0] U3K[0] U3[0] U4[0] U4Ü[0] U5[0] U6K[0] U6[0] U7K[0] U7[0]
!! N1[11] N2K[0] N2[14] N3K[0] N3[21] N4[18] N4Ü[0] N5[25] N6K[0] N6[11]
!!!n7k: 0] N7[0] O1[0] O2K[0] O2[0] O3K[0] O3[0] HÖ[0
